images/icons/crypto.svg

<?xml version="1.0" encoding="UTF-8"?>
<svg width="48px" height="48px" viewBox="0 0 48 48" version="1.1" xmlns="http://www.w3.org/2000/svg" xmlns:xlink="http://www.w3.org/1999/xlink">
    <title>Group 16</title>
    <g id="Design" stroke="none" stroke-width="1" fill="none" fill-rule="evenodd">
        <g id="XL" transform="translate(-315.000000, -2098.000000)" fill="#2FBEFF" fill-rule="nonzero">
            <g id="Group-14" transform="translate(285.000000, 1864.000000)">
                <g id="Group-13" transform="translate(0.000000, 194.000000)">
                    <g id="Group-16" transform="translate(30.000000, 40.000000)">
                        <path d="M32.0581875,30.5023125 C30.9209063,30.5023125 29.9956875,29.7015 29.9956875,28.7172188 C29.9956875,27.7328438 30.9209063,26.9320313 32.0581875,26.9320313 C33.1954688,26.9320313 34.1206875,27.7328438 34.1206875,28.7172188 C34.1206875,29.2349063 34.5405,29.6547188 35.0581875,29.6547188 C35.575875,29.6547188 35.9956875,29.2349063 35.9956875,28.7172188 C35.9956875,26.99925 34.715625,25.55475 32.9956875,25.1626875 L32.9956875,24.6750938 C32.9956875,24.1574063 32.575875,23.7375938 32.0581875,23.7375938 C31.5405,23.7375938 31.1206875,24.1574063 31.1206875,24.6750938 L31.1206875,25.1626875 C29.40075,25.55475 28.1206875,26.99925 28.1206875,28.7172188 C28.1206875,30.735375 29.8870313,32.3773125 32.0581875,32.3773125 C33.1954688,32.3773125 34.1206875,33.178125 34.1206875,34.1625 C34.1206875,35.146875 33.1954688,35.9476875 32.0581875,35.9476875 C30.9209063,35.9476875 29.9956875,35.146875 29.9956875,34.1625 C29.9956875,33.6448125 29.575875,33.225 29.0581875,33.225 C28.5405,33.225 28.1206875,33.6448125 28.1206875,34.1625 C28.1206875,35.8804688 29.40075,37.3249688 31.1206875,37.7170313 L31.1206875,38.1220313 C31.1206875,38.6397188 31.5405,39.0595313 32.0581875,39.0595313 C32.575875,39.0595313 32.9956875,38.6397188 32.9956875,38.1220313 L32.9956875,37.7170313 C34.715625,37.3249688 35.9956875,35.8804688 35.9956875,34.1625 C35.9956875,32.14425 34.2293438,30.5023125 32.0581875,30.5023125 Z" id="Path"></path>
                        <path d="M42.3264375,24.925875 C41.1017813,23.0175938 39.3764063,21.4905938 37.336875,20.5101563 C36.8700938,20.2857188 36.3099375,20.4822188 36.0856875,20.9489063 C35.8613438,21.4155938 36.05775,21.9756563 36.5244375,22.2 C40.0785938,23.9085 42.375,27.5590313 42.375,31.5000938 C42.375,33.1864688 41.9593125,34.858875 41.1730313,36.33675 C40.9298438,36.7937813 41.1031875,37.3615313 41.5603125,37.6047188 C41.7005625,37.6793438 41.8513125,37.7147813 41.9998125,37.7147813 C42.33525,37.7147813 42.6597188,37.5342188 42.8282813,37.2174375 C43.758375,35.4695625 44.25,33.4924688 44.25,31.5000938 C44.25,29.1600938 43.5848438,26.88675 42.3264375,24.925875 Z" id="Path"></path>
                        <path d="M33.5318437,19.3126875 L33.46875,19.3125937 C32.9510625,19.3125937 32.53125,19.7323125 32.53125,20.2500937 C32.53125,20.767875 32.9510625,21.1875937 33.46875,21.1875937 L33.5230312,21.1876875 C33.5245312,21.1876875 33.5259375,21.1876875 33.5275312,21.1876875 C34.04325,21.1876875 34.4625,20.770875 34.4649473,20.2545937 C34.4672812,19.7368125 34.0495312,19.315125 33.5318437,19.3126875 Z" id="Path"></path>
                        <path d="M27.6006563,40.8001875 C24.0465937,39.0915937 21.7501875,35.4410625 21.7501875,31.5000937 C21.7501875,29.8137187 22.165875,28.1413125 22.9521562,26.6634375 C23.1953437,26.2064062 23.022,25.6386562 22.564875,25.3954687 C22.1079375,25.1522812 21.54,25.325625 21.2969062,25.78275 C20.3668125,27.5307187 19.8751875,29.5077187 19.8751875,31.5000937 C19.8751875,33.8400937 20.5403437,36.1133437 21.79875,38.0743125 C23.0234062,39.9825937 24.7487812,41.5095937 26.7883125,42.490125 C26.9192812,42.553125 27.0576562,42.5828437 27.193875,42.5828437 C27.543,42.5828437 27.8780625,42.387 28.0395,42.051375 C28.2636562,41.5846875 28.0673437,41.0245312 27.6006563,40.8001875 Z" id="Path"></path>
                        <path d="M30.6564375,41.8125938 L30.6021562,41.8124047 C30.0820312,41.8114688 29.6627812,42.227625 29.6604269,42.7455 C29.658,43.2632813 30.0759375,43.6849688 30.593625,43.6874063 L30.6564375,43.6875938 C31.174125,43.6875938 31.5939375,43.2677813 31.5939375,42.7500938 C31.5939375,42.2324063 31.174125,41.8125938 30.6564375,41.8125938 Z" id="Path"></path>
                        <path d="M36.3195937,16.14075 C36.2055,15.868875 36.0657187,15.6126562 35.9030625,15.375 L38.34375,15.375 C40.721625,15.375 42.65625,13.440375 42.65625,11.0625 C42.65625,8.684625 40.721625,6.75 38.34375,6.75 L30.83625,6.75 C31.3135312,6.0560625 31.59375,5.21653125 31.59375,4.3125 C31.59375,1.934625 29.659125,-4.61852778e-14 27.28125,-4.61852778e-14 L4.3125,-4.61852778e-14 C1.934625,-4.61852778e-14 -4.61852778e-14,1.934625 -4.61852778e-14,4.3125 C-4.61852778e-14,6.690375 1.934625,8.625 4.3125,8.625 L11.82,8.625 C11.3427187,9.3189375 11.0625,10.1584687 11.0625,11.0625 C11.0625,11.9665312 11.342625,12.8060625 11.82,13.5 L9.375,13.5 C6.997125,13.5 5.0625,15.434625 5.0625,17.8125 C5.0625,19.1781562 5.7013125,20.3968125 6.69515625,21.1875 C5.7013125,21.9781875 5.0625,23.1968437 5.0625,24.5625 C5.0625,25.9281562 5.7013125,27.1468125 6.69515625,27.9375 C5.7013125,28.7281875 5.0625,29.9468437 5.0625,31.3125 C5.0625,32.6781562 5.7013125,33.8968125 6.69515625,34.6875 C5.7013125,35.4781875 5.0625,36.6968437 5.0625,38.0625 C5.0625,40.440375 6.997125,42.375 9.375,42.375 L20.4234375,42.375 C23.334,45.4881562 27.4745625,47.4375937 32.0625937,47.4375937 C40.8505312,47.4375937 48.0000937,40.2880312 48.0000937,31.5000937 C48.0000937,24.186 43.0472812,18.0077812 36.3195937,16.14075 Z M38.34375,8.625 C39.6878437,8.625 40.78125,9.7185 40.78125,11.0625 C40.78125,12.4065 39.6878437,13.5 38.34375,13.5 L32.34375,13.5 L15.375,13.5 C14.0309062,13.5 12.9375,12.4065 12.9375,11.0625 C12.9375,9.7185 14.0309062,8.625 15.375,8.625 L38.34375,8.625 Z M4.3125,6.75 C2.96840625,6.75 1.875,5.6565 1.875,4.3125 C1.875,2.9685 2.96840625,1.875 4.3125,1.875 L27.28125,1.875 C28.6253437,1.875 29.71875,2.9685 29.71875,4.3125 C29.71875,5.6565 28.6253437,6.75 27.28125,6.75 L4.3125,6.75 Z M9.375,15.375 L32.34375,15.375 C32.721375,15.375 33.0829687,15.46275 33.4073437,15.619875 C32.9639062,15.5826562 32.5155937,15.5625937 32.0625937,15.5625937 C27.6615,15.5625937 23.6715,17.3559375 20.7845625,20.25 L9.375,20.25 C8.031,20.25 6.9375,19.1565 6.9375,17.8125 C6.9375,16.4685 8.031,15.375 9.375,15.375 Z M9.375,22.125 L19.1826562,22.125 C18.1184062,23.5830937 17.2955625,25.2276562 16.773,27 L9.375,27 C8.03090625,27 6.9375,25.9065937 6.9375,24.5625 C6.9375,23.2185 8.03090625,22.125 9.375,22.125 Z M9.375,28.875 L16.3425,28.875 C16.2002812,29.7293437 16.1250937,30.606 16.1250937,31.5000937 C16.1250937,32.2637812 16.1803125,33.0147187 16.2846562,33.75 L9.375,33.75 C8.03090625,33.75 6.9375,32.6565937 6.9375,31.3125 C6.9375,29.9684062 8.03090625,28.875 9.375,28.875 Z M9.375,40.5 C8.03090625,40.5 6.9375,39.4065937 6.9375,38.0625 C6.9375,36.7184062 8.03090625,35.625 9.375,35.625 L16.6674375,35.625 C17.1405,37.3887187 17.9089687,39.0324375 18.9167812,40.5 L9.375,40.5 Z M32.0625937,45.5625937 C24.3085312,45.5625937 18.0000937,39.2541562 18.0000937,31.5000937 C18.0000937,23.7460312 24.3085312,17.4375937 32.0625937,17.4375937 C39.8166562,17.4375937 46.1250937,23.7460312 46.1250937,31.5000937 C46.1250937,39.2541562 39.8166562,45.5625937 32.0625937,45.5625937 Z" id="Shape"></path>
                    </g>
                </g>
            </g>
        </g>
    </g>
</svg>

<svg width="48" height="48" xmlns="http://www.w3.org/2000/svg"><g id="Design" stroke="none" stroke-width="1" fill="none" fill-rule="evenodd"><g id="XL" transform="translate(-315 -2098)" fill="#2FBEFF" fill-rule="nonzero"><g id="Group-14" transform="translate(285 1864)"><g id="Group-13" transform="translate(0 194)"><g id="Group-16" transform="translate(30 40)"><path d="M32.058 30.502c-1.137 0-2.062-.8-2.062-1.785 0-.984.925-1.785 2.062-1.785 1.137 0 2.063.8 2.063 1.785a.938.938 0 001.875 0c0-1.718-1.28-3.162-3-3.554v-.488a.938.938 0 00-1.875 0v.488c-1.72.392-3 1.836-3 3.554 0 2.018 1.766 3.66 3.937 3.66 1.137 0 2.063.801 2.063 1.785 0 .985-.926 1.786-2.063 1.786s-2.062-.801-2.062-1.785a.938.938 0 00-1.875 0c0 1.717 1.28 3.162 3 3.554v.405a.938.938 0 001.875 0v-.405c1.72-.392 3-1.837 3-3.554 0-2.019-1.767-3.66-3.938-3.66zm10.268-5.576a12.215 12.215 0 00-4.99-4.416.937.937 0 10-.812 1.69 10.374 10.374 0 015.851 9.3c0 1.686-.416 3.359-1.202 4.837a.937.937 0 101.655.88A12.212 12.212 0 0044.25 31.5c0-2.34-.665-4.613-1.924-6.574zm-8.794-5.613h-.063a.938.938 0 000 1.875h.059a.938.938 0 00.004-1.875zM27.6 40.8a10.375 10.375 0 01-5.85-9.3c0-1.686.416-3.359 1.202-4.837a.937.937 0 10-1.655-.88 12.212 12.212 0 00-1.422 5.717c0 2.34.665 4.613 1.924 6.574a12.216 12.216 0 004.99 4.416.938.938 0 00.812-1.69zm3.056 1.013h-.054a.937.937 0 10-.008 1.874h.062a.938.938 0 000-1.874z" id="Path"/><path d="M36.32 16.14a4.303 4.303 0 00-.417-.765h2.44a4.317 4.317 0 004.313-4.313 4.317 4.317 0 00-4.312-4.312h-7.508a4.287 4.287 0 00.758-2.438A4.317 4.317 0 0027.28 0H4.313A4.317 4.317 0 000 4.313a4.317 4.317 0 004.313 4.312h7.507a4.287 4.287 0 00-.758 2.438c0 .904.28 1.743.758 2.437H9.375a4.317 4.317 0 00-4.313 4.313 4.31 4.31 0 001.633 3.375 4.306 4.306 0 000 6.75 4.306 4.306 0 000 6.75 4.306 4.306 0 00-1.633 3.374 4.317 4.317 0 004.313 4.313h11.048a15.895 15.895 0 0011.64 5.063C40.85 47.438 48 40.288 48 31.5c0-7.314-4.953-13.492-11.68-15.36zm2.024-7.515a2.44 2.44 0 012.437 2.438 2.44 2.44 0 01-2.437 2.437H15.375a2.44 2.44 0 01-2.438-2.438 2.44 2.44 0 012.438-2.437h22.969zM4.312 6.75a2.44 2.44 0 01-2.437-2.438 2.44 2.44 0 012.438-2.437H27.28a2.44 2.44 0 012.438 2.438A2.44 2.44 0 0127.28 6.75H4.313zm5.063 8.625h22.969c.377 0 .739.088 1.063.245a15.888 15.888 0 00-12.623 4.63H9.376a2.44 2.44 0 01-2.438-2.438 2.44 2.44 0 012.438-2.437zm0 6.75h9.808A15.892 15.892 0 0016.773 27H9.375a2.44 2.44 0 01-2.438-2.438 2.44 2.44 0 012.438-2.437zm0 6.75h6.968a15.975 15.975 0 00-.058 4.875h-6.91a2.44 2.44 0 01-2.438-2.438 2.44 2.44 0 012.438-2.437zm0 11.625a2.44 2.44 0 01-2.438-2.438 2.44 2.44 0 012.438-2.437h7.292a15.875 15.875 0 002.25 4.875H9.375zm22.688 5.063C24.309 45.563 18 39.254 18 31.5c0-7.754 6.309-14.062 14.063-14.062 7.754 0 14.062 6.308 14.062 14.062s-6.308 14.063-14.062 14.063z" id="Shape"/></g></g></g></g></g></svg>
